;FLAVOR:Marlin
;TIME:7305
;Filament used: 2.52097m
;Layer height: 0.1
;MINX:94.12
;MINY:95.122
;MINZ:0.2
;MAXX:125.88
;MAXY:124.878
;MAXZ:55.4
;Generated with Cura_SteamEngine 4.5.0

M117 Wait for temp
M140 S110
M105
M190 S110
M104 S205
M105
M109 S205

M117 Setup
M201 X250 Y250 Z100 ;set max print accel
M202 X500 Y500;set max travel accel
;M204 T1000 P800 ;set max extruder accel
M205 X5 Y5 Z2 ;set max jerk

M82 ;absolute extrusion mode
;Sliced at: Tue 16-03-2021 23:25:18
;Basic settings: Layer height: 0.1 Walls: 1.0 Fill: {fill_density}
G21        ;metric values
G90        ;absolute positioning
M107       ;start with the fan off
M117 Home XYZ
G28 ;home xyz
G1 Z25.0 F5000.0 ;move the platform down 15mm
G92 E0                  ;zero the extruded length
G1 F200 E10              ;extrude 10mm of feed stock
M117 Clean Tip
G4 S10						; dwell 10 seconds to clean extruder
G92 E0                  ;zero the extruded length again
G1 F300.0

;Put printing message on LCD screen
M117 Printing...
Z25 ;avoid build surface mounts
G1 X0 Y100 F5000
G1 X110 Y110
Z0.2 ;avoid build surface mounts
G92 E0
G92 E0
G1 F3000 E-5
;LAYER_COUNT:549
;LAYER:0
M107
M204 S500
M205 X15 Y15
G1 F600 Z0.6
G0 F7500 X97.187 Y97.842 Z0.6
M205 X5 Y5
;TYPE:SKIRT
G1 F600 Z0.2
G1 F3000 E0
G1 F1500 X97.858 Y97.259 E0.0388
G1 X98.578 Y96.739 E0.07757
G1 X99.342 Y96.286 E0.11635
G1 X100.144 Y95.903 E0.15515
G1 X100.977 Y95.594 E0.19393
G1 X101.834 Y95.361 E0.2327
G1 X102.709 Y95.207 E0.27148
G1 X103.989 Y95.123 E0.32748
G1 X116.009 Y95.122 E0.8522
G1 X116.897 Y95.162 E0.89101
G1 X117.777 Y95.281 E0.92977
G1 X118.643 Y95.48 E0.96856
G1 X119.488 Y95.755 E1.00735
G1 X120.304 Y96.105 E1.04611
G1 X121.086 Y96.527 E1.0849
G1 X121.826 Y97.018 E1.12367
G1 X122.52 Y97.573 E1.16246
G1 X123.16 Y98.188 E1.20121
G1 X123.743 Y98.859 E1.24001
G1 X124.263 Y99.579 E1.27879
G1 X124.717 Y100.343 E1.31758
G1 X125.099 Y101.145 E1.35636
G1 X125.408 Y101.978 E1.39515
G1 X125.641 Y102.835 E1.43391
G1 X125.796 Y103.71 E1.47271
G1 X125.88 Y104.992 E1.52879
G1 X125.88 Y115.007 E1.96599
G1 X125.84 Y115.894 E2.00475
G1 X125.72 Y116.775 E2.04356
G1 X125.522 Y117.641 E2.08234
G1 X125.247 Y118.485 E2.12109
G1 X124.897 Y119.302 E2.15989
G1 X124.474 Y120.083 E2.19866
G1 X123.984 Y120.824 E2.23744
G1 X123.428 Y121.517 E2.27623
G1 X122.813 Y122.158 E2.31501
G1 X122.142 Y122.741 E2.35381
G1 X121.422 Y123.261 E2.39258
G1 X120.658 Y123.714 E2.43136
G1 X119.856 Y124.097 E2.47015
G1 X119.023 Y124.406 E2.50894
G1 X118.166 Y124.639 E2.54771
G1 X117.291 Y124.793 E2.58649
G1 X116.011 Y124.877 E2.64249
G1 X103.991 Y124.878 E3.16721
G1 X103.103 Y124.838 E3.20601
G1 X102.223 Y124.719 E3.24478
G1 X101.357 Y124.52 E3.28357
G1 X100.512 Y124.245 E3.32236
G1 X99.696 Y123.895 E3.36112
G1 X98.914 Y123.473 E3.39991
G1 X98.174 Y122.982 E3.43868
G1 X97.48 Y122.427 E3.47747
G1 X96.84 Y121.812 E3.51622
G1 X96.257 Y121.141 E3.55502
G1 X95.737 Y120.421 E3.59379
G1 X95.283 Y119.657 E3.63259
G1 X94.901 Y118.855 E3.67137
G1 X94.592 Y118.022 E3.71015
G1 X94.359 Y117.165 E3.74892
G1 X94.204 Y116.29 E3.78771
G1 X94.12 Y115.008 E3.8438
G1 X94.12 Y104.993 E4.28099
G1 X94.16 Y104.106 E4.31975
G1 X94.28 Y103.225 E4.35857
G1 X94.478 Y102.359 E4.39735
G1 X94.753 Y101.515 E4.4361
G1 X95.103 Y100.698 E4.4749
G1 X95.526 Y99.917 E4.51367
G1 X96.016 Y99.176 E4.55245
G1 X96.572 Y98.483 E4.59124
G1 X97.187 Y97.842 E4.63001
M205 X15 Y15
G0 F7500 X97.6 Y98.031
M205 X5 Y5
G1 F1500 X98.266 Y97.474 E4.66792
G1 X98.981 Y96.979 E4.70588
G1 X99.739 Y96.553 E4.74384
G1 X100.532 Y96.198 E4.78176
G1 X101.355 Y95.918 E4.81971
G1 X102.2 Y95.714 E4.85766
G1 X103.06 Y95.589 E4.8956
G1 X103.989 Y95.543 E4.9362
G1 X116.009 Y95.542 E5.46092
G1 X116.878 Y95.582 E5.4989
G1 X117.739 Y95.701 E5.53684
G1 X118.585 Y95.9 E5.57478
G1 X119.409 Y96.175 E5.6127
G1 X120.205 Y96.524 E5.65064
G1 X120.966 Y96.946 E5.68863
G1 X121.684 Y97.435 E5.72655
G1 X122.354 Y97.988 E5.76448
G1 X122.971 Y98.601 E5.80244
G1 X123.529 Y99.268 E5.84041
G1 X124.023 Y99.983 E5.87834
G1 X124.449 Y100.74 E5.91626
G1 X124.804 Y101.534 E5.95423
G1 X125.085 Y102.356 E5.99215
G1 X125.289 Y103.201 E6.0301
G1 X125.414 Y104.062 E6.06808
G1 X125.46 Y104.992 E6.10873
G1 X125.46 Y115.007 E6.54592
G1 X125.42 Y115.875 E6.58385
G1 X125.3 Y116.736 E6.6218
G1 X125.102 Y117.583 E6.65978
G1 X124.827 Y118.407 E6.6977
G1 X124.477 Y119.203 E6.73566
G1 X124.056 Y119.963 E6.77358
G1 X123.567 Y120.682 E6.81154
G1 X123.013 Y121.352 E6.84949
G1 X122.4 Y121.969 E6.88746
G1 X121.734 Y122.526 E6.92536
G1 X121.019 Y123.021 E6.96332
G1 X120.261 Y123.447 E7.00128
G1 X119.468 Y123.802 E7.03921
G1 X118.645 Y124.082 E7.07716
G1 X117.8 Y124.286 E7.11511
G1 X116.94 Y124.411 E7.15304
G1 X116.011 Y124.457 E7.19365
G1 X103.991 Y124.458 E7.71837
G1 X103.122 Y124.418 E7.75634
G1 X102.261 Y124.299 E7.79429
G1 X101.415 Y124.1 E7.83223
G1 X100.591 Y123.825 E7.87015
G1 X99.795 Y123.476 E7.90809
G1 X99.034 Y123.054 E7.94608
G1 X98.316 Y122.565 E7.984
G1 X97.646 Y122.012 E8.02192
G1 X97.029 Y121.399 E8.05989
G1 X96.471 Y120.732 E8.09785
G1 X95.977 Y120.017 E8.13579
G1 X95.551 Y119.26 E8.17371
G1 X95.196 Y118.466 E8.21168
G1 X94.915 Y117.644 E8.2496
G1 X94.711 Y116.799 E8.28755
G1 X94.586 Y115.938 E8.32553
G1 X94.54 Y115.008 E8.36618
G1 X94.54 Y104.993 E8.80337
G1 X94.58 Y104.125 E8.8413
G1 X94.7 Y103.264 E8.87925
G1 X94.898 Y102.417 E8.91722
G1 X95.173 Y101.593 E8.95514
G1 X95.523 Y100.797 E8.9931
G1 X95.944 Y100.037 E9.03103
G1 X96.433 Y99.318 E9.06899
G1 X96.987 Y98.648 E9.10694
G1 X97.6 Y98.031 E9.14491
M205 X15 Y15
G0 F7500 X98.011 Y98.226
M205 X5 Y5
G1 F1500 X98.674 Y97.694 E9.18202
G1 X99.384 Y97.226 E9.21914
G1 X100.134 Y96.828 E9.2562
G1 X100.919 Y96.501 E9.29333
G1 X101.73 Y96.25 E9.33039
G1 X102.562 Y96.077 E9.36748
G1 X103.406 Y95.982 E9.40456
G1 X103.989 Y95.963 E9.43002
G1 X116.009 Y95.962 E9.95474
G1 X116.858 Y96.002 E9.99185
G1 X117.699 Y96.121 E10.02892
G1 X118.526 Y96.319 E10.06605
G1 X119.33 Y96.594 E10.10314
G1 X120.104 Y96.944 E10.14022
G1 X120.843 Y97.364 E10.17733
G1 X121.538 Y97.852 E10.2144
G1 X122.185 Y98.403 E10.2515
G1 X122.777 Y99.013 E10.28861
G1 X123.309 Y99.675 E10.32568
G1 X123.776 Y100.385 E10.36278
G1 X124.175 Y101.135 E10.39986
G1 X124.501 Y101.92 E10.43697
G1 X124.752 Y102.732 E10.47407
G1 X124.926 Y103.563 E10.51113
G1 X125.021 Y104.408 E10.54825
G1 X125.04 Y104.992 E10.57376
G1 X125.04 Y115.007 E11.01096
G1 X125 Y115.856 E11.04806
G1 X124.88 Y116.697 E11.08514
G1 X124.682 Y117.523 E11.12222
G1 X124.407 Y118.327 E11.15932
G1 X124.058 Y119.102 E11.19642
G1 X123.638 Y119.84 E11.23349
G1 X123.15 Y120.536 E11.2706
G1 X122.598 Y121.182 E11.30769
G1 X121.989 Y121.774 E11.34477
G1 X121.326 Y122.306 E11.38188
G1 X120.616 Y122.774 E11.419
G1 X119.866 Y123.172 E11.45606
G1 X119.081 Y123.499 E11.49319
G1 X118.27 Y123.75 E11.53025
G1 X117.438 Y123.923 E11.56734
G1 X116.594 Y124.018 E11.60442
G1 X116.011 Y124.037 E11.62988
G1 X103.991 Y124.038 E12.1546
G1 X103.142 Y123.998 E12.19171
G1 X102.301 Y123.879 E12.22878
G1 X101.474 Y123.681 E12.26591
G1 X100.67 Y123.406 E12.303
G1 X99.896 Y123.056 E12.34008
G1 X99.157 Y122.636 E12.37719
G1 X98.462 Y122.148 E12.41426
G1 X97.815 Y121.597 E12.45136
G1 X97.223 Y120.987 E12.48847
G1 X96.691 Y120.325 E12.52554
G1 X96.224 Y119.615 E12.56264
G1 X95.825 Y118.865 E12.59972
G1 X95.499 Y118.08 E12.63683
G1 X95.248 Y117.268 E12.67393
G1 X95.074 Y116.437 E12.711
G1 X94.979 Y115.592 E12.74812
G1 X94.96 Y115.008 E12.77362
G1 X94.96 Y104.993 E13.21082
G1 X95 Y104.144 E13.24792
G1 X95.12 Y103.303 E13.285
G1 X95.318 Y102.477 E13.32208
G1 X95.593 Y101.673 E13.35918
G1 X95.942 Y100.898 E13.39628
G1 X96.362 Y100.16 E13.43335
G1 X96.85 Y99.464 E13.47046
G1 X97.402 Y98.818 E13.50755
G1 X98.011 Y98.226 E13.54463
M205 X15 Y15
G0 F7500 X97.816 Y98.992
M205 X5 Y5
G1 F1500 X98.422 Y98.425 E13.58086
G1 X99.08 Y97.92 E13.61706
G1 X99.784 Y97.48 E13.65331
G1 X100.527 Y97.11 E13.68954
G1 X101.301 Y96.814 E13.72571
G1 X102.101 Y96.593 E13.76195
G1 X102.919 Y96.45 E13.7982
G1 X103.989 Y96.383 E13.845
G1 X116.009 Y96.382 E14.36972
G1 X116.838 Y96.422 E14.40595
G1 X117.659 Y96.541 E14.44216
G1 X118.465 Y96.739 E14.47839
G1 X119.248 Y97.014 E14.51462
G1 X120.001 Y97.363 E14.55085
G1 X120.716 Y97.782 E14.58703
G1 X121.389 Y98.269 E14.62329
G1 X122.011 Y98.818 E14.65951
G1 X122.577 Y99.424 E14.69571
G1 X123.083 Y100.082 E14.73194
G1 X123.522 Y100.785 E14.76813
G1 X123.892 Y101.528 E14.80436
G1 X124.189 Y102.303 E14.84059
G1 X124.41 Y103.103 E14.87682
G1 X124.553 Y103.92 E14.91303
G1 X124.62 Y104.992 E14.95992
G1 X124.62 Y115.007 E15.39711
G1 X124.58 Y115.836 E15.43334
G1 X124.46 Y116.657 E15.46956
G1 X124.262 Y117.462 E15.50575
G1 X123.988 Y118.245 E15.54197
G1 X123.639 Y118.998 E15.5782
G1 X123.219 Y119.714 E15.61443
G1 X122.733 Y120.386 E15.65064
G1 X122.184 Y121.008 E15.68685
G1 X121.578 Y121.575 E15.72308
G1 X120.92 Y122.08 E15.75929
G1 X120.216 Y122.52 E15.79553
G1 X119.473 Y122.89 E15.83176
G1 X118.699 Y123.186 E15.86794
G1 X117.899 Y123.407 E15.90417
G1 X117.081 Y123.55 E15.94042
G1 X116.011 Y123.617 E15.98722
G1 X103.991 Y123.618 E16.51194
G1 X103.162 Y123.578 E16.54817
G1 X102.341 Y123.459 E16.58439
G1 X101.535 Y123.261 E16.62062
G1 X100.752 Y122.986 E16.65685
G1 X99.999 Y122.637 E16.69308
G1 X99.284 Y122.218 E16.72925
G1 X98.611 Y121.731 E16.76552
G1 X97.989 Y121.182 E16.80174
G1 X97.423 Y120.576 E16.83793
G1 X96.917 Y119.918 E16.87417
G1 X96.478 Y119.215 E16.91035
G1 X96.108 Y118.472 E16.94658
G1 X95.811 Y117.697 E16.98281
G1 X95.59 Y116.897 E17.01905
G1 X95.447 Y116.08 E17.05525
G1 X95.38 Y115.008 E17.10214
G1 X95.38 Y104.993 E17.53934
G1 X95.42 Y104.164 E17.57557
G1 X95.54 Y103.343 E17.61179
G1 X95.738 Y102.538 E17.64798
G1 X96.012 Y101.755 E17.68419
G1 X96.361 Y101.002 E17.72042
G1 X96.781 Y100.286 E17.75666
G1 X97.267 Y99.614 E17.79286
G1 X97.816 Y98.992 E17.82908
M205 X15 Y15
G0 F7500 X98.23 Y99.171
M205 X5 Y5
G1 F1500 X98.833 Y98.631 E17.86441
G1 X99.486 Y98.153 E17.89974
G1 X100.182 Y97.742 E17.93503
G1 X100.917 Y97.402 E17.97038
G1 X101.681 Y97.135 E18.00571
G1 X102.467 Y96.946 E18.041
G1 X103.269 Y96.835 E18.07634
G1 X103.989 Y96.803 E18.1078
G1 X116.009 Y96.802 E18.63252
G1 X116.818 Y96.842 E18.66788
G1 X117.618 Y96.961 E18.70319
G1 X118.402 Y97.159 E18.73849
G1 X119.164 Y97.434 E18.77385
G1 X119.894 Y97.782 E18.80916
G1 X120.587 Y98.2 E18.84449
G1 X121.235 Y98.685 E18.87982
G1 X121.832 Y99.231 E18.91514
G1 X122.372 Y99.834 E18.95047
G1 X122.85 Y100.487 E18.9858
G1 X123.261 Y101.184 E19.02112
G1 X123.601 Y101.918 E19.05643
G1 X123.868 Y102.682 E19.09176
G1 X124.057 Y103.469 E19.1271
G1 X124.168 Y104.27 E19.1624
G1 X124.2 Y104.992 E19.19395
G1 X124.2 Y115.007 E19.63114
G1 X124.16 Y115.815 E19.66646
G1 X124.04 Y116.616 E19.70181
G1 X123.843 Y117.4 E19.7371
G1 X123.568 Y118.161 E19.77243
G1 X123.22 Y118.892 E19.80777
G1 X122.801 Y119.584 E19.84308
G1 X122.317 Y120.232 E19.87839
G1 X121.77 Y120.829 E19.91374
G1 X121.167 Y121.369 E19.94907
G1 X120.514 Y121.847 E19.9844
G1 X119.818 Y122.258 E20.01968
G1 X119.083 Y122.598 E20.05504
G1 X118.319 Y122.865 E20.09037
G1 X117.533 Y123.054 E20.12566
G1 X116.731 Y123.165 E20.161
G1 X116.011 Y123.197 E20.19246
G1 X103.991 Y123.198 E20.71718
G1 X103.182 Y123.158 E20.75254
G1 X102.382 Y123.039 E20.78785
G1 X101.598 Y122.841 E20.82315
G1 X100.836 Y122.566 E20.85851
G1 X100.106 Y122.218 E20.89382
G1 X99.413 Y121.8 E20.92915
G1 X98.765 Y121.315 E20.96448
G1 X98.168 Y120.769 E20.9998
G1 X97.628 Y120.166 E21.03513
G1 X97.15 Y119.513 E21.07046
G1 X96.739 Y118.816 E21.10578
G1 X96.399 Y118.082 E21.14109
G1 X96.132 Y117.318 E21.17642
G1 X95.943 Y116.531 E21.21176
G1 X95.832 Y115.73 E21.24706
G1 X95.8 Y115.008 E21.27861
G1 X95.8 Y104.993 E21.7158
G1 X95.84 Y104.185 E21.75112
G1 X95.96 Y103.384 E21.78647
G1 X96.157 Y102.6 E21.82176
G1 X96.432 Y101.839 E21.85708
G1 X96.78 Y101.108 E21.89243
G1 X97.199 Y100.416 E21.92774
G1 X97.683 Y99.768 E21.96305
G1 X98.23 Y99.171 E21.9984
M205 X15 Y15
G0 F7500 X98.643 Y99.355
M205 X5 Y5
G1 F1500 X99.242 Y98.843 E22.0328
G1 X99.889 Y98.393 E22.0672
G1 X100.579 Y98.012 E22.10161
G1 X101.304 Y97.702 E22.13603
G1 X102.056 Y97.468 E22.17041
G1 X102.828 Y97.31 E22.20481
G1 X103.989 Y97.223 E22.25563
G1 X116.009 Y97.222 E22.78035
G1 X116.797 Y97.262 E22.8148
G1 X117.576 Y97.381 E22.8492
G1 X118.339 Y97.579 E22.88361
G1 X119.078 Y97.853 E22.91801
G1 X119.785 Y98.201 E22.95241
G1 X120.454 Y98.618 E22.98683
G1 X121.076 Y99.101 E23.0212
G1 X121.647 Y99.644 E23.0556
G1 X122.16 Y100.243 E23.09003
G1 X122.609 Y100.891 E23.12445
G1 X122.991 Y101.58 E23.15884
G1 X123.301 Y102.305 E23.19326
G1 X123.535 Y103.057 E23.22764
G1 X123.693 Y103.83 E23.26208
G1 X123.78 Y104.992 E23.31295
G1 X123.78 Y115.007 E23.75014
G1 X123.74 Y115.794 E23.78454
G1 X123.621 Y116.573 E23.81894
G1 X123.423 Y117.336 E23.85335
G1 X123.149 Y118.075 E23.88776
G1 X122.801 Y118.782 E23.92216
G1 X122.384 Y119.451 E23.95657
G1 X121.901 Y120.074 E23.99099
G1 X121.357 Y120.645 E24.02541
G1 X120.758 Y121.157 E24.05981
G1 X120.111 Y121.607 E24.09422
G1 X119.421 Y121.988 E24.12862
G1 X118.696 Y122.298 E24.16305
G1 X117.944 Y122.532 E24.19743
G1 X117.172 Y122.69 E24.23183
G1 X116.011 Y122.777 E24.28265
G1 X103.991 Y122.778 E24.80737
G1 X103.203 Y122.738 E24.84181
G1 X102.424 Y122.619 E24.87621
G1 X101.661 Y122.421 E24.91063
G1 X100.922 Y122.147 E24.94503
G1 X100.215 Y121.799 E24.97943
G1 X99.546 Y121.382 E25.01384
G1 X98.924 Y120.899 E25.04822
G1 X98.353 Y120.356 E25.08262
G1 X97.84 Y119.757 E25.11705
G1 X97.391 Y119.109 E25.15146
G1 X97.009 Y118.42 E25.18585
G1 X96.699 Y117.695 E25.22027
G1 X96.465 Y116.943 E25.25465
G1 X96.307 Y116.17 E25.2891
G1 X96.22 Y115.008 E25.33996
G1 X96.22 Y104.993 E25.77716
G1 X96.26 Y104.206 E25.81156
G1 X96.379 Y103.427 E25.84596
G1 X96.577 Y102.664 E25.88037
G1 X96.851 Y101.925 E25.91478
G1 X97.199 Y101.218 E25.94918
G1 X97.616 Y100.549 E25.98359
G1 X98.099 Y99.926 E26.018
G1 X98.643 Y99.355 E26.05243
M205 X15 Y15
G0 F7500 X99.055 Y99.546
M205 X5 Y5
G1 F1500 X99.649 Y99.062 E26.08588
G1 X100.291 Y98.642 E26.11937
G1 X100.972 Y98.291 E26.15281
G1 X101.687 Y98.013 E26.1863
G1 X102.426 Y97.811 E26.21975
G1 X103.183 Y97.687 E26.25323
G1 X103.989 Y97.643 E26.28847
G1 X116.009 Y97.642 E26.81319
G1 X116.775 Y97.682 E26.84668
G1 X117.532 Y97.801 E26.88013
G1 X118.273 Y97.999 E26.91361
G1 X118.989 Y98.273 E26.94708
G1 X119.672 Y98.619 E26.9805
G1 X120.316 Y99.036 E27.01399
G1 X120.913 Y99.516 E27.04743
G1 X121.457 Y100.057 E27.08092
G1 X121.941 Y100.651 E27.11437
G1 X122.361 Y101.292 E27.14783
G1 X122.712 Y101.974 E27.18131
G1 X122.99 Y102.688 E27.21476
G1 X123.192 Y103.428 E27.24824
G1 X123.315 Y104.184 E27.28168
G1 X123.36 Y104.992 E27.31701
G1 X123.36 Y115.007 E27.7542
G1 X123.32 Y115.773 E27.78769
G1 X123.201 Y116.53 E27.82114
G1 X123.003 Y117.27 E27.85458
G1 X122.729 Y117.986 E27.88804
G1 X122.382 Y118.67 E27.92153
G1 X121.966 Y119.314 E27.95499
G1 X121.485 Y119.911 E27.98846
G1 X120.945 Y120.454 E28.02189
G1 X120.351 Y120.938 E28.05534
G1 X119.709 Y121.358 E28.08883
G1 X119.028 Y121.709 E28.12228
G1 X118.313 Y121.987 E28.15577
G1 X117.574 Y122.189 E28.18921
G1 X116.817 Y122.313 E28.2227
G1 X116.011 Y122.357 E28.25793
G1 X103.991 Y122.358 E28.78265
G1 X103.225 Y122.318 E28.81614
G1 X102.468 Y122.199 E28.84959
G1 X101.727 Y122.001 E28.88307
G1 X101.011 Y121.727 E28.91654
G1 X100.328 Y121.381 E28.94996
G1 X99.684 Y120.964 E28.98345
G1 X99.087 Y120.484 E29.01689
G1 X98.543 Y119.943 E29.05039
G1 X98.059 Y119.349 E29.08383
G1 X97.639 Y118.708 E29.11729
G1 X97.288 Y118.026 E29.15077
